fs/weather_snowflake_20_regular.svg

<svg viewBox="0 0 20 20" fill="none" xmlns="http://www.w3.org/2000/svg" height="1em" width="1em">
  <path d="M10.0001 1.99805C10.2456 1.99805 10.4497 2.17499 10.492 2.40826L10.5 2.49814L10.4995 5.56305L12.5177 3.79092C12.7251 3.60866 13.041 3.62907 13.2233 3.83652C13.4056 4.04397 13.3851 4.35989 13.1777 4.54216L10.4995 6.89505L10.4985 9.49805H13.1045L15.4587 6.82169C15.6208 6.63735 15.8885 6.60083 16.0916 6.72305L16.1644 6.77635C16.3487 6.93843 16.3853 7.20606 16.263 7.40918L16.2097 7.482L14.4365 9.49805L17.5014 9.49854C17.7469 9.49852 17.9511 9.67538 17.9934 9.90863L18.0015 9.99851C18.0015 10.244 17.8246 10.4481 17.5914 10.4905L17.5015 10.4985L14.4345 10.499L16.208 12.5172C16.3701 12.7016 16.3719 12.9717 16.2246 13.1574L16.1624 13.2228C15.978 13.3848 15.7079 13.3867 15.5222 13.2394L15.4568 13.1772L13.1035 10.499L10.4975 10.498L10.4985 13.103L13.1777 15.4577C13.3621 15.6197 13.3987 15.8873 13.2766 16.0905L13.2233 16.1634C13.0613 16.3478 12.7937 16.3844 12.5905 16.2622L12.5177 16.209L10.4975 14.434L10.4973 17.5011C10.4973 17.7465 10.3204 17.9506 10.0871 17.9929L9.99724 18.001C9.75178 18.001 9.54766 17.824 9.50537 17.5908L9.49733 17.5009L9.49654 14.437L7.48249 16.2088C7.2751 16.3912 6.95917 16.3709 6.77684 16.1635C6.5945 15.9561 6.6148 15.6402 6.82218 15.4578L9.49753 13.105V10.499L7.07126 10.5006L7.0445 10.5376L4.54256 13.3853C4.36029 13.5927 4.04437 13.6131 3.83692 13.4309C3.62947 13.2486 3.60906 12.9327 3.79132 12.7252L5.74654 10.499L2.49857 10.4995C2.25311 10.4995 2.04893 10.3227 2.00659 10.0894L1.99854 9.99955C1.99854 9.75409 2.17538 9.54993 2.40863 9.50758L2.4985 9.49952L5.37854 9.49905L3.79113 7.6897C3.60899 7.48215 3.62958 7.16624 3.83713 6.98409C4.04469 6.80195 4.3606 6.82255 4.54274 7.0301L6.70954 9.49905H9.49854V6.89305L6.82218 4.54022C6.63784 4.37814 6.60132 4.11051 6.72354 3.90738L6.77684 3.83457C6.93891 3.65023 7.20655 3.6137 7.40967 3.73592L7.48249 3.78922L9.49953 5.56205L9.5 2.49796C9.50004 2.28318 9.6355 2.10009 9.82562 2.02932L9.91022 2.0061L10.0001 1.99805Z" fill="#212121"/>
</svg>

<svg viewBox="0 0 20 20" fill="none" xmlns="http://www.w3.org/2000/svg" height="1em" width="1em">
  <path d="M10 1.998a.5.5 0 0 1 .492.41l.008.09v3.065l2.018-1.772a.5.5 0 1 1 .66.751l-2.679 2.353v2.603h2.605l2.355-2.676a.5.5 0 0 1 .633-.099l.072.053a.5.5 0 0 1 .099.633l-.053.073-1.774 2.016h3.065a.5.5 0 0 1 .492.41l.009.09a.5.5 0 0 1-.41.493l-.09.008h-3.067l1.773 2.018a.5.5 0 0 1 .017.64l-.063.066a.5.5 0 0 1-.64.016l-.065-.062-2.354-2.678-2.605-.001v2.605l2.68 2.355a.5.5 0 0 1 .099.632l-.054.073a.5.5 0 0 1-.633.1l-.072-.054-2.02-1.775v3.067a.5.5 0 0 1-.41.492l-.09.008a.5.5 0 0 1-.493-.41l-.008-.09v-3.064l-2.015 1.772a.5.5 0 1 1-.66-.751l2.676-2.353v-2.606l-2.427.002-.026.037-2.502 2.847a.5.5 0 0 1-.752-.66L5.747 10.5H2.499a.5.5 0 0 1-.492-.41L1.999 10a.5.5 0 0 1 .41-.491l.09-.008h2.88L3.79 7.689a.5.5 0 0 1 .752-.66L6.71 9.5h2.789V6.893L6.822 4.54a.5.5 0 0 1-.098-.633l.053-.072a.5.5 0 0 1 .633-.1l.072.054L9.5 5.562V2.498a.5.5 0 0 1 .326-.469l.084-.023.09-.008Z" fill="#212121"/>
</svg>
